X: 16573
T: Hamnataing
R: hornpipe
M: 4/4
K: Dmajor
|:"D" FGFE D3F|"G" G2FG "D" AFDE|F3G AFDF|"G" GA"D"FD "A"E2FG|
"D" ABAG FEFA|"G" GAFG "D" A2 "A/C#" AG|"Bm" FGFD "Em" E2FG|1 "A" AFEF "D" DA,DE:|2 "A" AFEF "D" D3c||
|:"D" dcBA F3A|"G" BABc BA"D/F#"FA|"Em" B3c d3e|"A" dcBA B2Bc|
"D" dcBA A3d|"G" B3c BA"D/F#"FD|"Em" E3F GAFD|1 "A" EDDC "D" D3c:|2 "A" EDDC "D" D4||
|:"D" D3F "A(/C#)" E3F|"D" DEFd "G"B2 "D/F#"AG|"Em7" F3G AFDF|"A" GAFD E2FG|
"D" A3F "A(/C#)" E3F|"D" DEFd "G"B2 "D/F#"AF|"Em" E3F GAFD|1 "A" EDDC "D" D4:|2 "A" EDDC "D" D3c||
|:"Bm" dcBA "D/F#" F3A|"G" BABc BA"D/F#"FA|"Em" B3c d3e|"A" dcBA B2"(/A#)"Bc|
"Bm" dcBA "D/F#" A3d|"G" B3c BA"D/F#"FD|"Em" E3F GAFD|1 "A" EDDC "D" D3c:|2 "A" EDDC "D" D3"<("E"<)"||

